flaticon/household/sofa-18.svg

<svg xmlns="http://www.w3.org/2000/svg" width="32" height="32" viewBox="0 0 24 24">
    <path d="M 23.964844 13.914062 L 23.167969 10.789062 C 23.089844 10.484375 22.84375 10.273438 22.542969 10.21875 L 20.785156 9.164062 L 20.800781 6.300781 C 20.800781 5.140625 19.859375 4.199219 18.699219 4.199219 L 13.699219 4.199219 C 13 4.199219 12.382812 4.546875 12 5.074219 C 11.621094 4.546875 11.003906 4.199219 10.300781 4.199219 L 5.300781 4.199219 C 4.144531 4.199219 3.203125 5.140625 3.203125 6.300781 L 3.203125 9.171875 L 1.457031 10.21875 C 1.15625 10.273438 0.910156 10.484375 0.832031 10.789062 L 0.0351562 13.914062 C -0.0117188 14.101562 -0.0117188 14.296875 0.0351562 14.484375 L 0.832031 17.613281 C 0.921875 17.964844 1.234375 18.203125 1.578125 18.203125 C 1.59375 18.203125 1.605469 18.199219 1.621094 18.199219 L 2.398438 18.199219 L 2.398438 19.800781 L 3.367188 19.800781 L 4.964844 18.199219 L 19.035156 18.199219 L 20.632812 19.800781 L 21.601562 19.800781 L 21.601562 18.199219 L 22.359375 18.199219 C 22.371094 18.199219 22.386719 18.199219 22.402344 18.199219 C 22.765625 18.199219 23.078125 17.964844 23.167969 17.613281 L 23.964844 14.484375 C 24.011719 14.296875 24.011719 14.101562 23.964844 13.914062 Z M 21.632812 10.789062 L 20.992188 13.300781 L 20.535156 12.726562 L 20.042969 12.113281 L 20.171875 11.65625 L 20.640625 10.011719 L 21.6875 10.640625 C 21.664062 10.6875 21.648438 10.734375 21.632812 10.789062 Z M 4.59375 12.601562 L 19.410156 12.601562 L 20.367188 13.800781 L 3.632812 13.800781 Z M 13.699219 5 L 18.699219 5 C 19.417969 5 20 5.582031 20 6.300781 L 20 9.34375 L 19.300781 11.800781 L 12.402344 11.800781 L 12.402344 6.300781 C 12.402344 6.296875 12.402344 6.292969 12.402344 6.292969 C 12.40625 5.578125 12.984375 5 13.699219 5 Z M 4 6.300781 C 4 5.582031 4.585938 5 5.300781 5 L 10.300781 5 C 11.015625 5 11.597656 5.578125 11.601562 6.292969 C 11.601562 6.296875 11.601562 6.296875 11.601562 6.300781 L 11.601562 11.800781 L 4.703125 11.800781 L 4 9.34375 Z M 3.359375 10.011719 L 3.960938 12.109375 L 3.007812 13.300781 L 2.367188 10.789062 C 2.351562 10.734375 2.335938 10.6875 2.3125 10.636719 Z M 1.609375 17.414062 L 0.8125 14.289062 C 0.796875 14.230469 0.796875 14.167969 0.8125 14.113281 L 1.589844 10.984375 L 2.390625 14.113281 C 2.394531 14.140625 2.398438 14.171875 2.398438 14.199219 L 2.398438 17.40625 Z M 3.199219 18.835938 L 3.199219 18.199219 L 3.835938 18.199219 Z M 5.765625 17.398438 L 3.199219 17.398438 L 3.199219 14.601562 L 20.800781 14.601562 L 20.800781 17.398438 Z M 20.800781 18.835938 L 20.164062 18.199219 L 20.800781 18.199219 Z M 23.1875 14.289062 L 22.378906 17.398438 L 21.601562 17.398438 L 21.601562 14.199219 C 21.601562 14.171875 21.605469 14.140625 21.609375 14.113281 L 22.394531 11 L 23.191406 14.113281 C 23.203125 14.167969 23.203125 14.230469 23.1875 14.289062 Z M 23.1875 14.289062"/>
</svg>

<svg xmlns="http://www.w3.org/2000/svg" width="32" height="32" viewBox="0 0 24 24">
    <path d="M23.965 13.914l-.797-3.125a.776.776 0 0 0-.625-.57l-1.758-1.055.016-2.863c0-1.16-.942-2.102-2.102-2.102h-5c-.699 0-1.316.348-1.699.875a2.088 2.088 0 0 0-1.7-.875h-5a2.101 2.101 0 0 0-2.097 2.102v2.87L1.457 10.22a.776.776 0 0 0-.625.57l-.797 3.125a1.174 1.174 0 0 0 0 .57l.797 3.13c.09.35.402.59.746.59.016 0 .027-.005.043-.005h.777v1.602h.97l1.597-1.602h14.07l1.598 1.602h.969v-1.602h.8a.78.78 0 0 0 .766-.586l.797-3.129a1.174 1.174 0 0 0 0-.57zm-2.332-3.125l-.64 2.512-.458-.574-.492-.614.129-.457.469-1.644 1.047.629a.833.833 0 0 0-.055.148zm-17.04 1.813H19.41l.957 1.199H3.633zM13.7 5h5A1.3 1.3 0 0 1 20 6.3v3.044l-.7 2.457h-6.898V6.3v-.008A1.298 1.298 0 0 1 13.7 5zM4 6.3C4 5.583 4.586 5 5.3 5h5c.716 0 1.298.578 1.302 1.293v5.508H4.703L4 9.344zm-.64 3.712l.6 2.097-.952 1.192-.64-2.512a1.009 1.009 0 0 0-.055-.152zm-1.75 7.402L.811 14.29a.335.335 0 0 1 0-.176l.778-3.129.8 3.13a.639.639 0 0 1 .008.085v3.207zm1.59 1.422v-.637h.636zm2.566-1.438H3.199v-2.796h17.602v2.796zM20.8 18.836l-.637-.637h.637zm2.387-4.547l-.81 3.11h-.776v-3.2c0-.027.003-.058.007-.086L22.395 11l.796 3.113a.383.383 0 0 1-.003.176zm0 0"/>
</svg>
